icon/ir/bus-outline.svg

<svg stroke-width="1.5" viewBox="0 0 24 24" fill="none" xmlns="http://www.w3.org/2000/svg" height="1em" width="1em">
  <path d="M7 16.01L7.01 15.9989" stroke="currentColor" stroke-linecap="round" stroke-linejoin="round"/>
  <path d="M17 16.01L17.01 15.9989" stroke="currentColor" stroke-linecap="round" stroke-linejoin="round"/>
  <path d="M3 12H21V19C21 19.5523 20.5523 20 20 20H4C3.44772 20 3 19.5523 3 19V12Z" stroke="currentColor" stroke-linecap="round" stroke-linejoin="round"/>
  <path d="M21 8V6C21 3.79086 19.2091 2 17 2H7C4.79086 2 3 3.79086 3 6V8" stroke="currentColor" stroke-linecap="round" stroke-linejoin="round"/>
  <path d="M7 8L17 8" stroke="currentColor" stroke-linecap="round" stroke-linejoin="round"/>
  <path d="M4 20H8V22C8 22.5523 7.55228 23 7 23H5C4.44772 23 4 22.5523 4 22V20Z" fill="currentColor"/>
  <path d="M16 20H20V22C20 22.5523 19.5523 23 19 23H17C16.4477 23 16 22.5523 16 22V20Z" fill="currentColor"/>
</svg>

<svg width="24" height="24" stroke-width="1.5" fill="none" xmlns="http://www.w3.org/2000/svg"><path d="m7 16.01.01-.011M17 16.01l.01-.011M3 12h18v7a1 1 0 0 1-1 1H4a1 1 0 0 1-1-1v-7ZM21 8V6a4 4 0 0 0-4-4H7a4 4 0 0 0-4 4v2M7 8h10" stroke="currentColor" stroke-linecap="round" stroke-linejoin="round"/><path d="M4 20h4v2a1 1 0 0 1-1 1H5a1 1 0 0 1-1-1v-2ZM16 20h4v2a1 1 0 0 1-1 1h-2a1 1 0 0 1-1-1v-2Z" fill="currentColor"/></svg>
